X:3
T:Antigonish Polka
A:Cape Breton
S:http://www.princetonol.com/groups/pcd/tunes/ro2003/MaureenOfGibberlandMedley.pdf
M:C|
L:1/8
K:D
|: FG |\
"D"A2 f2 "D/C#"fedB | "D/B"A2 AB "D/A"AGFA | "D"d2 cd "D#dim"b3 a | "Em"g2 ga gfed |
"A"c2 cd cBAc | "D"d3c "Bm"defg | "A"a2 ^ga b2 c2 | "D"d6 :|
|: FG |\
"D"A2 ^GA "D/C#"Bcde | "D/B"f2 A2 "D/A"f2 FG | "D"A2 ^GA "D/C#"Bcde | "D/B"f2 A2 fagf |
"Em"eagf edcB | "A7"Aagf edcB | "E7"(3ABA ^G "A"A B2 c2 | "D"d6 :|
